X:1
T:Title
%%score 1 2
L:1/8
Q:1/4=96
M:4/4
K:A
V:1 treble nm="Grand Piano, Soprano"
V:2 bass nm="Choir Pad, City of the Blest"
V:1
 [CE][CE] [CA]2 [CA]>[DB] [Ec]2 | [Ec][DB] [CA]2 [DA]>[DF] [FA]2 | [EA][EA] [EB]2 [EB]>[Ec] [Ed]2 | %3
w: By~William.~J.~Holtzclaw * * * * *|||
 [Ec][DB] [CA]2 [^DA]>[Dc] [EB]2 | [CE][CE] [CA]2 [CA]>[EB] [Ec]2 | %5
w: ||
 [Ec][DB] [CA]2 [DA]>[DF] [CA]2- | [CA]2 [Ec][DB] [CA]E [DF]2 | [Fd]>[Fd] [Ec]2 [CA]>[DB] [CA]2- | %8
w: |||
 [CA]2 [EB][EB] [EB]>[Ec] [EB]2- | [EB]2 [Ec][Ec] [Ec]>[Fd] [Ec]2- | [Ec]2 [Ec][DB] [CA]E [DF]2 | %11
w: |||
 [Fd]>[Fd] [Ec]2 [CA]>[EB] [Ec]2- | [Ec]2 [EB][EB] [EB]>[Ec] [EB]2- | %13
w: ||
 [EB]2 [Ec][Ec] [Ec]>[Fd] [Ec]2- | [Ec]2 [Ec][DB] [CA]E [DF]2 | [Fd]>[Fd] [Ec]2 [CA]>[DB] [CA]2- | %16
w: |||
 [CA]6 z2 |] %17
w: |
V:2
 [A,,A,][A,,A,] [A,,A,]2 [A,,A,]>[E,G,] A,2 | [E,A,][E,G,] [A,,A,]2 [A,,F,]>[A,,A,] [A,,A,]2 | %2
 [C,A,][C,A,] [E,G,]2 [E,G,]>[E,A,] [E,B,]2 | [E,A,][E,G,] [F,A,]2 [B,,B,]>[B,,A,] [E,G,]2 | %4
 [A,,A,][A,,A,] [A,,A,]2 [A,,A,]>[E,G,] A,2 | [E,A,][E,G,] [A,,A,]2 [A,,F,]>[A,,A,] [A,,A,]2- | %6
 [A,,A,]2 A,A, A,[C,A,] [D,A,]2 | [D,A,]>[D,A,] [E,A,]2 [E,A,]>[E,G,] [A,,A,]2- | %8
 [A,,A,]2 [E,G,][E,G,] [E,G,]>[E,A,] [E,G,]2- | [E,G,]2 [A,,A,][A,,A,] [A,,A,]>[A,,A,] [A,,A,]2- | %10
 [A,,A,]2 A,A, A,[C,A,] [D,A,]2 | [D,A,]>[D,A,] [E,A,]2 [E,A,]>[E,G,] A,2- | %12
 A,2 [E,G,][E,G,] [E,G,]>[E,A,] [E,G,]2- | [E,G,]2 [A,,A,][A,,A,] [A,,A,]>[A,,A,] [A,,A,]2- | %14
 [A,,A,]2 A,A, A,[C,A,] [D,A,]2 | [D,A,]>[D,A,] [E,A,]2 [E,A,]>[E,G,] [A,,A,]2- | [A,,A,]6 z2 |] %17

